vendor/shopware/storefront/Resources/app/storefront/dist/assets/icon/default/preview.svg

<svg xmlns="http://www.w3.org/2000/svg" width="24" height="24" viewBox="0 0 24 24">
  <path fill="#758CA3" fill-rule="evenodd" d="M22,8 L2,8 L2,21 C2,21.5522847 2.44771525,22 3,22 C3.55228475,22 4,22.4477153 4,23 C4,23.5522847 3.55228475,24 3,24 C1.34314575,24 3.33066907e-16,22.6568542 0,21 L0,3 C-4.99600361e-16,1.34314575 1.34314575,3.33066907e-16 3,0 L21,2.22044605e-16 C22.6568542,-1.11022302e-16 24,1.34314575 24,3 L24,11 C24,11.5522847 23.5522847,12 23,12 C22.4477153,12 22,11.5522847 22,11 L22,8 Z M22,6 L22,3 C22,2.44771525 21.5522847,2 21,2 L3,2 C2.44771525,2 2,2.44771525 2,3 L2,6 L22,6 Z M17,3 C17.5522847,3 18,3.44771525 18,4 C18,4.55228475 17.5522847,5 17,5 C16.4477153,5 16,4.55228475 16,4 C16,3.44771525 16.4477153,3 17,3 Z M20,3 C20.5522847,3 21,3.44771525 21,4 C21,4.55228475 20.5522847,5 20,5 C19.4477153,5 19,4.55228475 19,4 C19,3.44771525 19.4477153,3 20,3 Z M14,24 C10.9065361,24 8.07075288,22.684559 5.53197177,20.103895 C4.38343654,18.9364122 4.38344021,17.0635626 5.53197978,15.8960968 C8.07075884,13.3154383 10.9065394,12 14,12 C17.0934639,12 19.9292471,13.315441 22.4680282,15.896105 C23.6165635,17.0635878 23.6165598,18.9364374 22.4680202,20.1039032 C19.9292412,22.6845617 17.0934606,24 14,24 Z M14,22 C16.5280547,22 18.862376,20.9171745 21.0422914,18.7012994 C21.4251374,18.3121447 21.4251387,17.6878637 21.0422925,17.2987017 C18.8623811,15.0828279 16.5280575,14 14,14 C11.4719453,14 9.13762397,15.0828255 6.95770858,17.2987006 C6.57486257,17.6878553 6.57486135,18.3121363 6.95770748,18.7012983 C9.13761888,20.9171721 11.4719425,22 14,22 Z M14,20 C12.8954305,20 12,19.1045695 12,18 C12,16.8954305 12.8954305,16 14,16 C15.1045695,16 16,16.8954305 16,18 C16,19.1045695 15.1045695,20 14,20 Z"/>
</svg>

<svg xmlns="http://www.w3.org/2000/svg" width="24" height="24" viewBox="0 0 24 24"><path fill="#758CA3" fill-rule="evenodd" d="M22 8H2v13c0 .5523.4477 1 1 1s1 .4477 1 1-.4477 1-1 1c-1.6569 0-3-1.3431-3-3V3c0-1.6569 1.3431-3 3-3h18c1.6569 0 3 1.3431 3 3v8c0 .5523-.4477 1-1 1s-1-.4477-1-1V8zm0-2V3c0-.5523-.4477-1-1-1H3c-.5523 0-1 .4477-1 1v3h20zm-5-3c.5523 0 1 .4477 1 1s-.4477 1-1 1-1-.4477-1-1 .4477-1 1-1zm3 0c.5523 0 1 .4477 1 1s-.4477 1-1 1-1-.4477-1-1 .4477-1 1-1zm-6 21c-3.0935 0-5.9292-1.3154-8.468-3.8961-1.1486-1.1675-1.1486-3.0403 0-4.2078C8.0708 13.3154 10.9065 12 14 12c3.0935 0 5.9292 1.3154 8.468 3.8961 1.1486 1.1675 1.1486 3.0403 0 4.2078C19.9292 22.6846 17.0935 24 14 24zm0-2c2.528 0 4.8624-1.0828 7.0423-3.2987a1 1 0 0 0 0-1.4026C18.8623 15.0828 16.528 14 14 14c-2.528 0-4.8624 1.0828-7.0423 3.2987a1 1 0 0 0 0 1.4026C9.1377 20.9172 11.472 22 14 22zm0-2c-1.1046 0-2-.8954-2-2s.8954-2 2-2 2 .8954 2 2-.8954 2-2 2z"/></svg>
